public/flags/GY.svg

<svg fill="none" height="53" viewBox="0 0 61 53" width="61" xmlns="http://www.w3.org/2000/svg" xmlns:xlink="http://www.w3.org/1999/xlink"><mask id="a" height="43" maskUnits="userSpaceOnUse" width="59" x="1" y="3"><rect fill="#fff" height="42.5" rx="4.24286" width="59" x="1" y="3"/></mask><rect fill="#fff" height="42.5" rx="4.24286" width="59" x="1" y="3"/><g mask="url(#a)"><path d="m1 3h59v42.5h-59z" fill="#08c55f"/><g stroke-width="2.82857"><path d="m-.395284 44.0857v-39.67141h1.163886l57.817098 19.43571v.8l-57.817091 19.4357z" fill="#ffd831" stroke="#fff"/><path d="m-.395284 44.0857v-39.67141h.971834l30.15915 19.83571-30.15915 19.8357z" fill="#e92034" stroke="#262626"/></g></g></svg>

<svg width="61" height="53" viewBox="0 0 61 53" fill="none" xmlns="http://www.w3.org/2000/svg">
<rect x="1" y="3" width="59" height="42.5" rx="4.24286" fill="white"/>
<mask id="mask0" mask-type="alpha" maskUnits="userSpaceOnUse" x="1" y="3" width="59" height="43">
<rect x="1" y="3" width="59" height="42.5" rx="4.24286" fill="white"/>
</mask>
<g mask="url(#mask0)">
<rect x="1" y="3" width="59" height="42.5" fill="#08C55F"/>
<path d="M-0.395284 44.0857V4.41429H0.768602L58.5857 23.85V24.65L0.768609 44.0857H-0.395284Z" fill="#FFD831" stroke="white" stroke-width="2.82857"/>
<path d="M-0.395284 44.0857V4.41429H0.57655L30.7357 24.25L0.57655 44.0857H-0.395284Z" fill="#E92034" stroke="#262626" stroke-width="2.82857"/>
</g>
</svg>
